X:12
T:Jack’s Alive. JaW.012
M:C|
L:1/8
Q:1/2=100
S:James Winder Ms, Lancashire, 1835-41
R:.Reel
O:England
A:Wyresdale,Lancashire
Z:vmp.Chris Partington, Aug 2004
K:G
G2GB A2Ac|dBcA BG F(E/D/)|G2GB A2Ac|dBcA G2G2:|!
g2ga f2fg|e2eg agfe|g2ga f2fg|egaf g2g2|!
g2ga f2fg|e2eg agfd|g2Bd e2Ac|dBcA|G2G2|]

